svgs/sharp-solid/mobile-signal-out.svg

<svg xmlns="http://www.w3.org/2000/svg" viewBox="0 0 512 512"><!--! Font Awesome Pro 6.6.0 by @fontawesome - https://fontawesome.com License - https://fontawesome.com/license (Commercial License) Copyright 2024 Fonticons, Inc. --><path d="M64 64l160 0 0-64L64 0 0 0 0 64 0 448l0 64 64 0 224 0 64 0 0-64 0-160-64 0 0 160L64 448 64 64zm80 320l-16 0 0 32 16 0 64 0 16 0 0-32-16 0-64 0zM256 48c114.9 0 208 93.1 208 208l48 0C512 114.6 397.4 0 256 0l0 48zm32 208a32 32 0 1 0 0-64 32 32 0 1 0 0 64zm80 0l48 0c0-88.4-71.6-160-160-160l0 48c61.9 0 112 50.1 112 112z"/></svg>

<svg xmlns="http://www.w3.org/2000/svg" viewBox="0 0 512 512"><!--! Font Awesome Pro 6.4.2 by @fontawesome - https://fontawesome.com License - https://fontawesome.com/license (Commercial License) Copyright 2023 Fonticons, Inc. --><path d="M64 64H224V0H64 0V64 448v64H64 288h64V448 288H288V448H64V64zm80 320H128v32h16 64 16V384H208 144zM256 48c114.9 0 208 93.1 208 208h48C512 114.6 397.4 0 256 0V48zm32 208a32 32 0 1 0 0-64 32 32 0 1 0 0 64zm80 0h48c0-88.4-71.6-160-160-160v48c61.9 0 112 50.1 112 112z"/></svg>
